packages/katcn/src/icons/svg/arrow11-solid.svg

<svg width="24" height="25" viewBox="0 0 24 25" fill="none" xmlns="http://www.w3.org/2000/svg">
<path d="M22.1 5.23443L17.3 1.74186C16.6 1.24292 15.7 1.14313 15 1.54228C14.2 1.94143 13.8 2.63995 13.8 3.53804V4.03697H11.7C6.3 3.93719 2 8.32784 2 13.6166V21.4998C2 22.4977 2.8 23.296 3.8 23.296H6.2C7.2 23.296 8 22.4977 8 21.4998V13.6166C8 11.521 9.7 9.92445 11.7 9.92445H13.9V10.5232C13.9 11.3215 14.4 12.1198 15.1 12.5189C15.4 12.7185 15.8 12.7185 16.1 12.7185C16.6 12.7185 17 12.6187 17.4 12.3194L22.2 8.82678C22.7 8.32784 23 7.72912 23 7.0306C23 6.33209 22.7 5.63358 22.1 5.23443Z" fill="black"/>
</svg>

<svg xmlns="http://www.w3.org/2000/svg" fill="none" viewBox="0 0 24 25"><path fill="#000" d="m22.1 5.234-4.8-3.492c-.7-.5-1.6-.599-2.3-.2-.8.4-1.2 1.098-1.2 1.996v.499h-2.1c-5.4-.1-9.7 4.29-9.7 9.58V21.5c0 .998.8 1.796 1.8 1.796h2.4c1 0 1.8-.798 1.8-1.796v-7.883c0-2.096 1.7-3.693 3.7-3.693h2.2v.6c0 .798.5 1.596 1.2 1.995.3.2.7.2 1 .2.5 0 .9-.1 1.3-.4l4.8-3.492c.5-.5.8-1.098.8-1.796 0-.699-.3-1.397-.9-1.797"/></svg>
